assets/img/sketch-3-basics/movies.svg

<?xml version="1.0" encoding="UTF-8" standalone="no"?>
<svg width="288px" height="288px" viewBox="0 0 288 288" version="1.1" xmlns="http://www.w3.org/2000/svg" xmlns:xlink="http://www.w3.org/1999/xlink">
    <defs></defs>
    <g stroke="none" stroke-width="1" fill="none" fill-rule="evenodd">
        <g transform="translate(-406.000000, -3713.000000)">
            <g transform="translate(406.000000, 3713.000000)">
                <g transform="translate(64.000000, 64.000000)">
                    <circle fill="#4990E2" cx="80" cy="80" r="49"></circle>
                    <path d="M123.933995,146.867318 C111.324131,155.169187 96.2262139,160 80,160 C35.81722,160 0,124.18278 0,80 C0,35.81722 35.81722,0 80,0 C124.18278,0 160,35.81722 160,80 C160,96.2232121 155.170975,111.318545 146.871926,123.926996 L157.163992,134.175889 C158.737933,135.743228 160,138.793679 160,141.006294 L160,155.993706 C160,158.214367 158.206321,160 155.993706,160 L141.006294,160 C138.785633,160 135.736164,158.729714 134.177143,157.162738 L123.933995,146.867318 Z M100.568242,123.382328 C94.3341581,126.343255 87.3605559,128 80,128 C53.490332,128 32,106.509668 32,80 C32,53.490332 53.490332,32 80,32 C106.509668,32 128,53.490332 128,80 C128,87.3519233 126.347138,94.3178 123.392741,100.546305 L91.1643748,68.453133 C84.8065658,62.1219943 74.5038818,62.1382539 68.1565408,68.4855948 L68.5211287,68.1210069 C62.1720619,74.4700737 62.1572201,84.7752926 68.4835758,91.1339321 L100.568242,123.382328 Z" fill="#000000"></path>
                </g>
                <path d="M144,288 C223.529004,288 288,223.529004 288,144 C288,64.470996 223.529004,0 144,0 C64.470996,0 0,64.470996 0,144 C0,223.529004 64.470996,288 144,288 Z M144,284 C221.319865,284 284,221.319865 284,144 C284,66.680135 221.319865,4 144,4 C66.680135,4 4,66.680135 4,144 C4,221.319865 66.680135,284 144,284 Z" fill="#4A90E2"></path>
            </g>
        </g>
        <g></g>
    </g>
</svg>

<svg width="288" height="288" viewBox="0 0 288 288" xmlns="http://www.w3.org/2000/svg"><g fill="none"><g transform="translate(64 64)"><circle fill="#4990E2" cx="80" cy="80" r="49"/><path d="M123.934 146.867c-12.61 8.303-27.708 13.133-43.934 13.133-44.183 0-80-35.817-80-80s35.817-80 80-80 80 35.817 80 80c0 16.223-4.83 31.32-13.128 43.927l10.292 10.25c1.574 1.566 2.836 4.617 2.836 6.83v14.987c0 2.22-1.794 4.006-4.006 4.006h-14.988c-2.22 0-5.27-1.27-6.83-2.837l-10.242-10.296zm-23.366-23.485c-6.234 2.96-13.208 4.618-20.568 4.618-26.51 0-48-21.49-48-48s21.49-48 48-48 48 21.49 48 48c0 7.352-1.653 14.318-4.607 20.546l-32.23-32.093c-6.356-6.33-16.66-6.315-23.006.033l.364-.365c-6.348 6.35-6.363 16.655-.036 23.014l32.084 32.248z" fill="#000"/></g><path d="M144 288c79.53 0 144-64.47 144-144s-64.47-144-144-144-144 64.47-144 144 64.47 144 144 144zm0-4c77.32 0 140-62.68 140-140s-62.68-140-140-140-140 62.68-140 140 62.68 140 140 140z" fill="#4A90E2"/></g></svg>
